**kern	**silbe	**harmony	**phrase	**leadinstrument	**rhyme	**timestamp	**harte
*ICvox	*	*M4/4	*	*	*	*	*M4/4
*VRlead	*	*	*	*	*	*	*
*Hstimme	*	*	*	*	*	*	*
*A:	*	*A:	*	*	*	*	*A:
*M4/4	*	*	*	*	*	*	*
*clefF4	*	*	*	*	*	*	*
r;	.	1r;	.	r	.	0	N.C.
=1	=1	=1	=1	=1	=1	=1	=1
*>Letter>A	*>Letter>A	*>Letter>A	*>Letter>A	*>Letter>A	*>Letter>A	*>Letter>A	*>Letter>A
*>Label>Intro	*>Label>Intro	*>Label>Intro	*>Label>Intro	*>Label>Intro	*>Label>Intro	*>Label>Intro	*>Label>Intro
1r	.	1N	newline	bass voice	.	0.302	N.C.
=2	=2	=2	=2	=2	=2	=2	=2
4r	.	1AM	.	bass voice	.	2.119	A:1
8r	.	.	.	.	.	.	.
8E	Got	.	.	.	.	.	.
8r	.	.	.	.	.	.	.
8E	my-	.	.	.	.	.	.
8F#	-self	.	.	.	.	.	.
8E	a	.	.	.	.	.	.
=3	=3	=3	=3	=3	=3	=3	=3
*>Letter>B	*>Letter>B	*>Letter>B	*>Letter>B	*>Letter>B	*>Letter>B	*>Letter>B	*>Letter>B
*>Label>Chorus	*>Label>Chorus	*>Label>Chorus	*>Label>Chorus	*>Label>Chorus	*>Label>Chorus	*>Label>Chorus	*>Label>Chorus
8G#q	_	.	.	.	.	.	.
4A	cry-	1AM	newline	bass voice	.	3.936	A:maj
4F#	-in',	.	.	.	.	.	.
4E	tal-	.	.	.	(A	.	.
4C#	-kin',	.	.	.	a)	.	.
=4	=4	=4	=4	=4	=4	=4	=4
8G#q	_	.	.	.	.	.	.
4A	slee-	1AM	.	bass voice	.	5.826	A:maj
4F#	-pin',	.	.	.	.	.	.
4E	wal-	.	.	.	(A	.	.
8C#	-kin'	.	.	.	a)	.	.
8BB	_	.	.	.	.	.	.
=5	=5	=5	=5	=5	=5	=5	=5
8A	li-	1AM	.	bass voice	.	7.715	A:maj
8G#q	_	.	.	.	.	.	.
4A	-ving	.	.	.	.	.	.
8A	doll	.	.	.	.	.	.
2AA	_	.	.	.	.	.	.
=6	=6	=6	=6	=6	=6	=6	=6
4r	.	1AM	.	bass voice	.	9.605	A:maj
8r	.	.	.	.	.	.	.
8E	Got	.	.	.	.	.	.
8r	.	.	.	.	.	.	.
8E	to	.	.	.	.	.	.
8F#	do	.	.	.	.	.	.
8E	my	.	.	.	.	.	.
=7	=7	=7	=7	=7	=7	=7	=7
8G#q	_	.	.	.	.	.	.
4A	best	1AM	newline	bass voice	.	11.494	A:maj
8F#	to	.	.	.	.	.	.
[8E	please	.	.	.	(B	.	.
4E]	_	.	.	.	.	.	.
4C#	her,	.	.	.	b)	.	.
=8	=8	=8	=8	=8	=8	=8	=8
4A	just	1AM	.	bass voice	.	13.384	A:maj
4F#	cuz	.	.	.	.	.	.
4E	she's	.	.	.	(B	.	.
8E	a	.	.	.	b)	.	.
8C#	_	.	.	.	.	.	.
=9	=9	=9	=9	=9	=9	=9	=9
8B	li-	1BMm	.	bass voice	.	15.274	B:7
8A#q	_	.	.	.	.	.	.
4B	-ving	.	.	.	.	.	.
8B	doll	.	.	.	.	.	.
2BB	_	.	.	.	.	.	.
=10	=10	=10	=10	=10	=10	=10	=10
4r	.	1EMm	.	bass voice	.	17.164	E:7
8r	.	.	.	.	.	.	.
[8E	Got	.	.	.	.	.	.
8E]	_	.	.	.	.	.	.
8E	a	.	.	.	.	.	.
8F#	ro-	.	.	.	.	.	.
8E	-vin'	.	.	.	.	.	.
=11	=11	=11	=11	=11	=11	=11	=11
8G#q	_	.	.	.	.	.	.
4A	eye	1AM	newline	bass voice	C	19.054	A:maj
4F#	and	.	.	.	.	.	.
8E	that	.	.	.	.	.	.
4C#	is	.	.	.	.	.	.
8G#	why	.	.	.	C	.	.
=12	=12	=12	=12	=12	=12	=12	=12
4A	_	1AM	.	bass voice	.	20.959	A:maj
4F#	she	.	.	.	.	.	.
8E	sa-	.	.	.	.	.	.
4C#	-tis-	.	.	.	.	.	.
8Aq	_	.	.	.	.	.	.
[8c	-fies	.	.	.	C	.	.
=13	=13	=13	=13	=13	=13	=13	=13
4c]	_	1F#Mm	.	bass voice	.	22.864	F#:7
8cq	_	.	.	.	.	.	.
4c#	my	.	.	.	.	.	.
2F#	soul	.	.	.	D	.	.
=14	=14	=14	=14	=14	=14	=14	=14
4r	.	1F#Mm	.	bass voice	.	24.768	F#:7
8r	.	.	.	.	.	.	.
16F#Q	_	.	.	.	.	.	.
8E	Got	.	.	.	.	.	.
8r	.	.	.	.	.	.	.
8E	the	.	.	.	.	.	.
8F#	one	.	.	.	.	.	.
8E	and	.	.	.	.	.	.
=15	=15	=15	=15	=15	=15	=15	=15
8G#q	_	.	.	.	.	.	.
4A	on-	1AM	newline	bass voice	.	26.673	A:maj
4F#	-ly	.	.	.	.	.	.
8C#q	_	.	.	.	.	.	.
4E	wal-	.	.	.	.	.	.
4BB	-kin',	.	.	.	.	.	.
=16	=16	=16	=16	=16	=16	=16	=16
4AA	tal-	1EM	.	bass voice	.	28.534	E:maj
4EE	-kin'	.	.	.	.	.	.
8r	.	.	.	.	.	.	.
8AA	li-	.	.	.	.	.	.
8AA	-ving	.	.	.	.	.	.
[8AA	doll	.	.	.	D	.	.
=17	=17	=17	=17	=17	=17	=17	=17
4AA]	_	1AM	.	bass voice	.	30.396	A:maj
4r	.	.	.	.	.	.	.
2r	.	.	.	.	.	.	.
=18	=18	=18	=18	=18	=18	=18	=18
8r	.	4AM	.	bass voice	.	32.257	A:maj
8AA	Well,	.	.	.	.	.	.
8AA	take	2.N	.	bass voice	.	32.722	N.C.
8AA	a	.	.	.	.	.	.
8C#	look	.	.	.	.	.	.
8C#	at	.	.	.	.	.	.
4E	her	.	.	.	.	.	.
=19	=19	=19	=19	=19	=19	=19	=19
*>Letter>C	*>Letter>C	*>Letter>C	*>Letter>C	*>Letter>C	*>Letter>C	*>Letter>C	*>Letter>C
*>Label>Bridge	*>Label>Bridge	*>Label>Bridge	*>Label>Bridge	*>Label>Bridge	*>Label>Bridge	*>Label>Bridge	*>Label>Bridge
4F#	hair	1DM	newline	bass voice	.	34.118	D:maj
4r	.	.	.	.	.	.	.
8r	.	.	.	.	.	.	.
4A	it's	.	.	.	.	.	.
[8A	real,	.	.	.	E	.	.
=20	=20	=20	=20	=20	=20	=20	=20
8A]	_	1DM	.	bass voice	.	36.012	D:maj
8A	and	.	.	.	.	.	.
8~AA	if	.	.	.	.	.	.
8AA	you	.	.	.	.	.	.
4D	don't	.	.	.	.	.	.
8F#	be-	.	.	.	.	.	.
8G#q	_	.	.	.	.	.	.
[8A	-lieve	.	.	.	.	.	.
=21	=21	=21	=21	=21	=21	=21	=21
8A]	_	1AM	.	bass voice	.	37.906	A:maj
8F#	what	.	.	.	.	.	.
8E	I	.	.	.	.	.	.
[8A	say,	.	.	.	.	.	.
8A]	_	.	.	.	.	.	.
8G#q	_	.	.	.	.	.	.
4A	just	.	.	.	.	.	.
8F#	feel	.	.	.	E	.	.
=22	=22	=22	=22	=22	=22	=22	=22
4E	_	1AM	.	bass voice	.	39.8	A:maj
8AA	Gon-	.	.	.	.	.	.
8AA	-na	.	.	.	.	.	.
8C#	lock	.	.	.	.	.	.
4E	her	.	.	.	.	.	.
[8F#	up	.	.	.	.	.	.
=23	=23	=23	=23	=23	=23	=23	=23
8F#]	_	1DM	newline	bass voice	.	41.694	D:maj
8A	in	.	.	.	.	.	.
8F#	a	.	.	.	.	.	.
[8A	trunk	.	.	.	F	.	.
4A]	_	.	.	.	.	.	.
8r	.	.	.	.	.	.	.
8F#	so	.	.	.	.	.	.
=24	=24	=24	=24	=24	=24	=24	=24
8A	no	1DM	.	bass voice	.	43.525	D:maj
4F#	big	.	.	.	.	.	.
[8A	hunk	.	.	.	F	.	.
8A]	_	.	.	.	.	.	.
8A	can	.	.	.	.	.	.
4F#	_	.	.	.	.	.	.
=25	=25	=25	=25	=25	=25	=25	=25
16AQ	_	.	.	.	.	.	.
16BQ	_	.	.	.	.	.	.
8c#	steal	4EM	.	bass voice	E	45.356	E:maj
8B	her	.	.	.	.	.	.
8A	a-	2.N	.	bass voice	.	45.813	N.C.
8E#	-way	.	.	.	.	.	.
4F#	_	.	.	.	.	.	.
4D	from	.	.	.	.	.	.
=26	=26	=26	=26	=26	=26	=26	=26
8Dq	_	.	.	.	.	.	.
4BB	me	1N	.	bass voice	.	47.187	N.C.
8r	.	.	.	.	.	.	.
8E	Got	.	.	.	.	.	.
8r	.	.	.	.	.	.	.
8E	my-	.	.	.	.	.	.
8F#	-self	.	.	.	.	.	.
8E	a	.	.	.	.	.	.
=27	=27	=27	=27	=27	=27	=27	=27
*>Letter>B	*>Letter>B	*>Letter>B	*>Letter>B	*>Letter>B	*>Letter>B	*>Letter>B	*>Letter>B
*>Label>Chorus	*>Label>Chorus	*>Label>Chorus	*>Label>Chorus	*>Label>Chorus	*>Label>Chorus	*>Label>Chorus	*>Label>Chorus
8G#q	_	.	.	.	.	.	.
4A	cry-	1AM	newline	bass voice	.	49.017	A:maj
4F#	-in',	.	.	.	.	.	.
4E	tal-	.	.	.	(A	.	.
4C#	-kin',	.	.	.	a)	.	.
=28	=28	=28	=28	=28	=28	=28	=28
8G#q	_	.	.	.	.	.	.
4A	slee-	1AM	.	bass voice	.	50.91	A:maj
4F#	-pin',	.	.	.	.	.	.
4E	wal-	.	.	.	(A	.	.
4C#	-kin'	.	.	.	a)	.	.
=29	=29	=29	=29	=29	=29	=29	=29
8A	li-	1AM	.	bass voice	.	52.803	A:maj
8G#q	_	.	.	.	.	.	.
4A	-ving	.	.	.	.	.	.
8A	doll	.	.	.	.	.	.
2AA	_	.	.	.	.	.	.
=30	=30	=30	=30	=30	=30	=30	=30
4r	.	1AM	.	bass voice	.	54.696	A:maj
8r	.	.	.	.	.	.	.
8E	Got	.	.	.	.	.	.
8r	.	.	.	.	.	.	.
8E	to	.	.	.	.	.	.
8F#	do	.	.	.	.	.	.
8E	my	.	.	.	.	.	.
=31	=31	=31	=31	=31	=31	=31	=31
8G#q	_	.	.	.	.	.	.
4A	best	1AM	newline	bass voice	.	56.589	A:maj
8F#	to	.	.	.	.	.	.
16EQ	_	.	.	.	.	.	.
16F#Q	_	.	.	.	.	.	.
[8E	please	.	.	.	(B	.	.
4E]	_	.	.	.	.	.	.
4C#	her,	.	.	.	b)	.	.
=32	=32	=32	=32	=32	=32	=32	=32
8G#q	_	.	.	.	.	.	.
4A	just	1AM	.	bass voice	.	58.494	A:maj
4F#	cuz	.	.	.	.	.	.
4E	she's	.	.	.	(B	.	.
8E	a	.	.	.	b)	.	.
8C#	_	.	.	.	.	.	.
=33	=33	=33	=33	=33	=33	=33	=33
8B	li-	1BMm	.	bass voice	.	60.4	B:7
8A#q	_	.	.	.	.	.	.
4B	-ving	.	.	.	.	.	.
8B	doll	.	.	.	.	.	.
2BB	_	.	.	.	.	.	.
=34	=34	=34	=34	=34	=34	=34	=34
4r	.	1EMm	.	bass voice	.	62.306	E:7
8r	.	.	.	.	.	.	.
[8E	Got	.	.	.	.	.	.
8E]	_	.	.	.	.	.	.
8E	a	.	.	.	.	.	.
8F#	ro-	.	.	.	.	.	.
8E	-vin'	.	.	.	.	.	.
=35	=35	=35	=35	=35	=35	=35	=35
8G#	eye	1AM	newline	bass voice	C	64.212	A:maj
8A	_	.	.	.	.	.	.
4F#	and	.	.	.	.	.	.
8E	that	.	.	.	.	.	.
4C#	is	.	.	.	.	.	.
8G#	why	.	.	.	C	.	.
=36	=36	=36	=36	=36	=36	=36	=36
4A	_	1AM	.	bass voice	.	66.096	A:maj
4F#	she	.	.	.	.	.	.
8E	sa-	.	.	.	.	.	.
4C#	-tis-	.	.	.	C	.	.
8Aq	_	.	.	.	.	.	.
[8c	-fies	.	.	.	.	.	.
=37	=37	=37	=37	=37	=37	=37	=37
4c]	_	1F#Mm	.	bass voice	.	67.98	F#:7
8cq	_	.	.	.	.	.	.
4c#	my	.	.	.	.	.	.
2F#	soul	.	.	.	D	.	.
=38	=38	=38	=38	=38	=38	=38	=38
4r	.	1F#Mm	.	bass voice	.	69.864	F#:7
8r	.	.	.	.	.	.	.
16F#Q	_	.	.	.	.	.	.
8E	Got	.	.	.	.	.	.
8r	.	.	.	.	.	.	.
8E	the	.	.	.	.	.	.
8F#	one	.	.	.	.	.	.
8E	and	.	.	.	.	.	.
=39	=39	=39	=39	=39	=39	=39	=39
8G#q	_	.	.	.	.	.	.
4A	on-	1AM	newline	voice	.	71.748	A:maj
4F#	-ly	.	.	.	.	.	.
8C#q	_	.	.	.	.	.	.
4E	wal-	.	.	.	(A	.	.
4BB	-kin',	.	.	.	a)	.	.
=40	=40	=40	=40	=40	=40	=40	=40
4AA	tal-	1EM	.	voice	(A	73.626	E:maj
4EE	-kin'	.	.	.	a)	.	.
8r	.	.	.	.	.	.	.
8A	li-	.	.	.	.	.	.
8A	-ving	.	.	.	.	.	.
[8A	doll	.	.	.	D	.	.
=41	=41	=41	=41	=41	=41	=41	=41
1A]	_	1AM	.	voice	.	75.504	A:maj
=42	=42	=42	=42	=42	=42	=42	=42
8r	.	4AM	.	voice	.	77.381	A:maj
8c#	Mmm	.	.	.	.	.	.
4B	_	2.N	.	voice	.	77.851	N.C.
[2A	_	.	.	.	.	.	.
=43	=43	=43	=43	=43	=43	=43	=43
*>Letter>B	*>Letter>B	*>Letter>B	*>Letter>B	*>Letter>B	*>Letter>B	*>Letter>B	*>Letter>B
*>Label>Solo	*>Label>Solo	*>Label>Solo	*>Label>Solo	*>Label>Solo	*>Label>Solo	*>Label>Solo	*>Label>Solo
2A]	_	1AM	newline	guitar	.	79.259	A:maj
2r	.	.	.	.	.	.	.
=44	=44	=44	=44	=44	=44	=44	=44
1r	.	1AM	.	guitar	.	81.157	A:maj
=45	=45	=45	=45	=45	=45	=45	=45
1r	.	1AM	.	guitar	.	83.055	A:maj
=46	=46	=46	=46	=46	=46	=46	=46
1r	.	1AM	.	guitar	.	84.953	A:maj
=47	=47	=47	=47	=47	=47	=47	=47
1r	.	1AM	newline	guitar	.	86.851	A:maj
=48	=48	=48	=48	=48	=48	=48	=48
1r	.	1AM	.	guitar	.	88.723	A:maj
=49	=49	=49	=49	=49	=49	=49	=49
1r	.	1BMm	.	guitar	.	90.595	B:7
=50	=50	=50	=50	=50	=50	=50	=50
1r	.	1EMm	.	guitar	.	92.467	E:7
=51	=51	=51	=51	=51	=51	=51	=51
1r	.	1AM	newline	guitar	.	94.339	A:maj
=52	=52	=52	=52	=52	=52	=52	=52
1r	.	1AM	.	guitar	.	96.221	A:maj
=53	=53	=53	=53	=53	=53	=53	=53
1r	.	1F#Mm	.	guitar	.	98.103	F#:7
=54	=54	=54	=54	=54	=54	=54	=54
1r	.	1F#Mm	.	guitar	.	99.985	F#:7
=55	=55	=55	=55	=55	=55	=55	=55
1r	.	1AM	newline	guitar	.	101.867	A:maj
=56	=56	=56	=56	=56	=56	=56	=56
1r	.	1EM	.	guitar	.	103.755	E:maj
=57	=57	=57	=57	=57	=57	=57	=57
1r	.	1AM	.	guitar	.	105.643	A:maj
=58	=58	=58	=58	=58	=58	=58	=58
8r	.	4AM	.	guitar	.	107.531	A:maj
8AA	Well,	.	.	.	.	.	.
8AA	take	2.N	.	guitar	.	108.003	N.C.
8AA	a	.	.	.	.	.	.
8C#	look	.	.	.	.	.	.
8C#	at	.	.	.	.	.	.
4E	her	.	.	.	.	.	.
=59	=59	=59	=59	=59	=59	=59	=59
*>Letter>C	*>Letter>C	*>Letter>C	*>Letter>C	*>Letter>C	*>Letter>C	*>Letter>C	*>Letter>C
*>Label>Bridge	*>Label>Bridge	*>Label>Bridge	*>Label>Bridge	*>Label>Bridge	*>Label>Bridge	*>Label>Bridge	*>Label>Bridge
4F#	hair	1DM	newline	voice	.	109.419	D:maj
4r	.	.	.	.	.	.	.
8r	.	.	.	.	.	.	.
4A	it's	.	.	.	.	.	.
[8A	real,	.	.	.	E	.	.
=60	=60	=60	=60	=60	=60	=60	=60
8A]	_	1DM	.	voice	.	111.318	D:maj
8A	and	.	.	.	.	.	.
8~AA	if	.	.	.	.	.	.
8AA	you	.	.	.	.	.	.
4D	don't	.	.	.	.	.	.
8F#	be-	.	.	.	.	.	.
8G#q	_	.	.	.	.	.	.
[8A	-lieve	.	.	.	.	.	.
=61	=61	=61	=61	=61	=61	=61	=61
8A]	_	1AM	.	voice	.	113.217	A:maj
8F#	what	.	.	.	.	.	.
8E	I	.	.	.	.	.	.
8G#q	_	.	.	.	.	.	.
[8A	say,	.	.	.	.	.	.
8A]	_	.	.	.	.	.	.
8G#q	_	.	.	.	.	.	.
4A	just	.	.	.	.	.	.
16F#	feel	.	.	.	E	.	.
16E	_	.	.	.	.	.	.
=62	=62	=62	=62	=62	=62	=62	=62
4r	.	1AM	.	voice	.	115.116	A:maj
8AA	Gon-	.	.	.	.	.	.
8AA	-na	.	.	.	.	.	.
8C#	lock	.	.	.	.	.	.
4E	her	.	.	.	.	.	.
[8F#	up	.	.	.	.	.	.
=63	=63	=63	=63	=63	=63	=63	=63
8F#]	_	1DM	newline	voice	.	117.015	D:maj
8A	in	.	.	.	.	.	.
8F#	a	.	.	.	.	.	.
[8A	trunk	.	.	.	F	.	.
4A]	_	.	.	.	.	.	.
8r	.	.	.	.	.	.	.
8F#	so	.	.	.	.	.	.
=64	=64	=64	=64	=64	=64	=64	=64
8A	no	1DM	.	voice	.	118.866	D:maj
8Aq	_	.	.	.	.	.	.
4F#	big	.	.	.	.	.	.
[8A	hunk	.	.	.	F	.	.
8A]	_	.	.	.	.	.	.
8A	can	.	.	.	.	.	.
4F#	_	.	.	.	.	.	.
=65	=65	=65	=65	=65	=65	=65	=65
16AQ	_	.	.	.	.	.	.
16BQ	_	.	.	.	.	.	.
8c#	steal	4EM	.	voice	E	120.717	E:maj
8B	her	.	.	.	.	.	.
8A	a-	2.N	.	voice	.	121.18	N.C.
8E#	-way	.	.	.	.	.	.
4F#	_	.	.	.	.	.	.
4D	from	.	.	.	.	.	.
=66	=66	=66	=66	=66	=66	=66	=66
8Dq	_	.	.	.	.	.	.
4BB	me	1N	.	voice	.	122.568	N.C.
8r	.	.	.	.	.	.	.
8E	Got	.	.	.	.	.	.
8r	.	.	.	.	.	.	.
8E	my-	.	.	.	.	.	.
8F#	-self	.	.	.	.	.	.
8E	a	.	.	.	.	.	.
=67	=67	=67	=67	=67	=67	=67	=67
*>Letter>B2	*>Letter>B2	*>Letter>B2	*>Letter>B2	*>Letter>B2	*>Letter>B2	*>Letter>B2	*>Letter>B2
*>Label>Chorus	*>Label>Chorus	*>Label>Chorus	*>Label>Chorus	*>Label>Chorus	*>Label>Chorus	*>Label>Chorus	*>Label>Chorus
8G#q	_	.	.	.	.	.	.
4A	cry-	1AM	newline	voice	.	124.419	A:maj
16F#Q	_	.	.	.	.	.	.
16AQ	_	.	.	.	.	.	.
8F#	-in',	.	.	.	a	.	.
[8E	_	.	.	.	.	.	.
4E]	tal-	.	.	.	(A	.	.
4C#	-kin',	.	.	.	a)	.	.
=68	=68	=68	=68	=68	=68	=68	=68
8G#q	_	.	.	.	.	.	.
4A	slee-	1AM	.	voice	.	126.323	A:maj
8F#	-pin',	.	.	.	.	.	.
8C#	_	.	.	.	.	.	.
4E	wal-	.	.	.	(A	.	.
8C#	-kin'	.	.	.	a)	.	.
8BB	_	.	.	.	.	.	.
=69	=69	=69	=69	=69	=69	=69	=69
8A	li-	1AM	.	voice	.	128.228	A:maj
8G#q	_	.	.	.	.	.	.
4A	-ving	.	.	.	.	.	.
8A	doll	.	.	.	.	.	.
2AA	_	.	.	.	.	.	.
=70	=70	=70	=70	=70	=70	=70	=70
4r	.	1AM	.	voice	.	130.132	A:maj
8r	.	.	.	.	.	.	.
8E	Got	.	.	.	.	.	.
8r	.	.	.	.	.	.	.
8E	to	.	.	.	.	.	.
8F#	do	.	.	.	.	.	.
8E	my	.	.	.	.	.	.
=71	=71	=71	=71	=71	=71	=71	=71
8G#q	_	.	.	.	.	.	.
4A	best	1AM	newline	voice	.	132.036	A:maj
16F#Q	_	.	.	.	.	.	.
16AQ	_	.	.	.	.	.	.
8F#	to	.	.	.	.	.	.
[8E	please	.	.	.	(B	.	.
4E]	_	.	.	.	.	.	.
4C#	her,	.	.	.	b)	.	.
=72	=72	=72	=72	=72	=72	=72	=72
8G#q	_	.	.	.	.	.	.
4A	just	1AM	.	voice	.	133.932	A:maj
4F#	cuz	.	.	.	.	.	.
4E	she's	.	.	.	(B	.	.
8E	a	.	.	.	b)	.	.
8C#	_	.	.	.	.	.	.
=73	=73	=73	=73	=73	=73	=73	=73
8B	li-	1BMm	.	voice	.	135.829	B:7
8A#q	_	.	.	.	.	.	.
4B	-ving	.	.	.	.	.	.
8B	doll	.	.	.	.	.	.
2BB	_	.	.	.	.	.	.
=74	=74	=74	=74	=74	=74	=74	=74
4r	.	1EMm	.	voice	.	137.725	E:7
8r	.	.	.	.	.	.	.
[8E	Got	.	.	.	.	.	.
8E]	_	.	.	.	.	.	.
8E	a	.	.	.	.	.	.
8F#	ro-	.	.	.	.	.	.
8E	-vin'	.	.	.	.	.	.
=75	=75	=75	=75	=75	=75	=75	=75
8G#	eye	1AM	newline	voice	C	139.621	A:maj
8A	_	.	.	.	.	.	.
4F#	and	.	.	.	.	.	.
8E	that	.	.	.	.	.	.
4C#	is	.	.	.	.	.	.
8G#	why	.	.	.	C	.	.
=76	=76	=76	=76	=76	=76	=76	=76
4A	_	1AM	.	voice	.	141.5	A:maj
4F#	she	.	.	.	.	.	.
8E	sa-	.	.	.	.	.	.
4C#	-tis-	.	.	.	.	.	.
8Aq	_	.	.	.	.	.	.
[8c	-fies	.	.	.	C	.	.
=77	=77	=77	=77	=77	=77	=77	=77
4c]	_	1F#Mm	.	voice	.	143.379	F#:7
8cq	_	.	.	.	.	.	.
4c#	my	.	.	.	.	.	.
[2F#	soul!	.	.	.	D	.	.
=78	=78	=78	=78	=78	=78	=78	=78
4F#]	_	1F#Mm	.	voice	.	145.259	F#:7
8r	.	.	.	.	.	.	.
16F#Q	_	.	.	.	.	.	.
8E	Got	.	.	.	.	.	.
8r	.	.	.	.	.	.	.
8E	the	.	.	.	.	.	.
8F#	one	.	.	.	.	.	.
8E	and	.	.	.	.	.	.
=79	=79	=79	=79	=79	=79	=79	=79
8G#q	_	.	.	.	.	.	.
4A	on-	1AM	newline	voice	.	147.138	A:maj
4F#	-ly	.	.	.	.	.	.
8C#q	_	.	.	.	.	.	.
4E	wal-	.	.	.	(A	.	.
4BB	-kin',	.	.	.	a)	.	.
=80	=80	=80	=80	=80	=80	=80	=80
4AA	tal-	4EM	.	voice	(A	149.034	E:maj
4AA	-kin'	2.N	.	voice	a)	149.508	N.C.
8r	.	.	.	.	.	.	.
8B	li-	.	.	.	.	.	.
8A	-ving	.	.	.	.	.	.
[8c	doll	.	.	.	.	.	.
=81	=81	=81	=81	=81	=81	=81	=81
8c]	_	1N	.	voice	.	150.93	N.C.
8B	_	.	.	.	.	.	.
[4A	_	.	.	.	.	.	.
2A_	_	.	.	.	.	.	.
=82	=82	=82	=82	=82	=82	=82	=82
2.A]	_	1AM	.	voice	.	152.826	A:maj6(9)
4r	.	.	.	.	.	.	.
r;	.	1r;	.	r	.	155.907	N.C.
r;	.	1r;	.	r	.	158.833	N.C.
*-	*-	*-	*-	*-	*-	*-	*-
!!!BillboardChartDate: 1959/10/12
!!!BillboardPeak: 30
!!!BillboardWeeksOnChart: 13
!!!COC: Cliff Richard
!!!ENC: Nathaniel Condit-Schultz
!!!EST: Awating manual error checking and editing.
!!!OTL: Living Doll
!!!RDF**chordsym: original McGill chord annotation + (implied pitch class set, with bass pitch in first position)
!!!RDF**harmony: **recip + pitch class of root + harmonic quality
!!!RDF**leadinstrument: original McGill primary instrumentation annotation
!!!RDF**phrase: newline = linebreak in original McGill transcription
!!!RDF**timestamp: McGill audio timestamp in seconds
!!!RDT: 2017/01/12/
!!!SampleActualRank: 46
!!!SampleID#: 0740
!!!SampleTargetRank: 48
